_inc/logos/hikaru.svg

<svg xmlns="http://www.w3.org/2000/svg" width="400" height="182.182">
    <path d="M333.056.598c-7.274 1.833-13.83 6.953-16.857 13.164-.551 1.13-8.002 22.669-16.558 47.865l-15.557 45.811-.102-32.298-.103-32.297h-47.643V59.66H266.667v44.845h-19.4c-23.43 0-24.621-.182-29.263-4.461-5.538-5.104-5.432-4.317-5.301-39.429l.11-29.602 1.332-2.705a17.54 17.54 0 0 1 7.956-7.957l2.706-1.332 29.538-.112 29.539-.113V1.564l-30.13.131c-29.792.131-30.166.142-33.334 1.029-11.887 3.331-20.518 11.901-24.073 23.903-.873 2.948-1.364 61.838-.556 66.666 1.908 11.395 9.402 20.933 20.023 25.485 6.014 2.578 5.395 2.543 45.395 2.543h36.218l1.592-4.704c18.097-53.495 32.617-96.038 33.091-96.954 2.561-4.953 9.321-6.16 13.566-2.423 2.267 1.995.771-2.045 16.887 45.617l14.014 41.447-21.922.104-21.922.103v16.81h33.633c20.943 0 33.634-.143 33.634-.38 0-1-35.403-105.458-36.507-107.715-4.719-9.648-18.908-15.535-30.437-12.628M35.636 1.854C24.411 3.461 17.494 6.835 10.554 14.087c-16.07 16.793-13.6 44.798 5.172 58.638 7.858 5.794 13.699 7.419 27.517 7.657 10.333.178 11.211.313 11.211 1.726 0 1.986.142 1.976-28.117 1.976H0v16.817h27.544c23.44 0 27.894-.091 29.897-.613 18.05-4.702 19.102-29.571 1.517-35.894-2.015-.724-3.673-.865-13.312-1.129-11.414-.313-12.589-.479-16.217-2.297-16.534-8.283-16.448-31.599.148-39.931 4.285-2.151 5.125-2.204 34.988-2.211l27.527-.007V1.602l-27.728.054c-15.25.03-28.178.119-28.728.198m92.692.192c-11.723 1.69-21.514 9.221-26.088 20.068-2.598 6.161-2.583 5.899-2.453 40.949l.116 31.632.946 2.802c3.116 9.241 8.939 16.173 16.941 20.166 7.326 3.656 4.753 3.428 40.268 3.563l31.331.119v-16.84l-29.129-.005c-23.395-.004-29.535-.113-31.191-.554-4.912-1.308-8.83-4.62-11.077-9.362l-1.275-2.692-.113-29.384c-.132-34.587-.268-33.42 4.479-38.404 5.159-5.417 4.182-5.285 39.15-5.285h29.557V1.602l-29.53.048c-16.241.027-30.61.205-31.932.396m209.377 16.76c-1.784.722-2.902 2.82-5.281 9.905-3.537 10.536-30.891 91.26-31.172 91.995-.217.564.81.618 9.861.522l10.104-.107 5.658-16.705 5.658-16.705.109 6.595.11 6.595h19.41c12.707 0 19.41-.139 19.41-.402 0-.842-26.462-78.959-27.053-79.861-1.196-1.826-4.58-2.735-6.814-1.832m-304.152 4.39c-15.166 4.849-17.799 25.197-4.364 33.722 3.533 2.242 5.674 2.615 16.848 2.938 13.879.402 17.159 1.371 22.416 6.625 12.595 12.59 6.188 33.778-11.307 37.392-2.609.539-7.03.632-30.102.632H0v17.273l28.929-.171c30.833-.181 30.98-.19 36.821-2.234 30.606-10.712 35.833-52.031 8.853-69.983-7.695-5.12-11.996-6.21-25.706-6.513-11.717-.26-12.621-.486-11.031-2.755l.618-.883h53.608V22.422l-28.128.022c-26.082.02-28.294.075-30.411.752m95.776-.399c-3.481 1.063-6.589 3.801-8.153 7.184-.813 1.759-.862 2.538-.979 15.765l-.124 13.914h57.705V42.85l-20.4-.104-20.4-.103.604-1.248c1.059-2.187.66-2.156 27.402-2.156h24.806V22.422l-29.73.035c-16.351.019-30.18.172-30.731.34m95.201.232c-3.602 1.323-6.452 4.226-7.745 7.891-.955 2.708-.837 59.031.13 61.739.901 2.524 3.657 5.587 6.265 6.963l2.045 1.079 18.919.115 18.919.115V63.263H236.22l.108 8.509.108 8.508 4.905.113 4.905.112v3.623l-5.505-.258c-5.425-.255-5.522-.276-6.607-1.43l-1.101-1.171V41.58l1.17-1.17 1.171-1.171h48.51V22.422l-28.929.029c-23.476.023-29.211.131-30.425.578M120.197 77.377l.123 14.114 1.368 2.524c1.52 2.802 2.767 4.008 5.797 5.607l2.045 1.079 29.929.112 29.93.112V84.107l-24.993-.111-24.993-.112-.995-.935c-2.744-2.579-3.597-2.469 18.987-2.469h20.383V63.263h-57.705l.124 14.114m222.68-3.103 2.607 7.808H334.363l2.688-7.807c1.479-4.294 2.808-7.808 2.954-7.808.147 0 1.439 3.513 2.872 7.807M92.893 161.161v19.82h11.612v-15.616h12.412v15.616h11.612v-39.64h-11.612v14.014h-12.412v-14.014H92.893v19.82m43.243 0v19.82h11.612v-39.64h-11.612v19.82m19.62 0v19.82h11.593l.109-7.053.11-7.053 5.519 7.053 5.519 7.053H205.681l4.149-11.612c2.283-6.386 4.248-11.611 4.368-11.611.119 0 2.09 5.225 4.379 11.611l4.163 11.612h6.39c5.923 0 6.371-.051 6.119-.701-.149-.385-3.534-9.308-7.522-19.829l-7.252-19.129-6.213.11-6.214.11-7.259 18.917c-3.993 10.405-7.351 19.009-7.462 19.121-.183.182-16.017-18.666-16.245-19.338-.053-.155 3.323-4.336 7.503-9.291 4.179-4.955 7.601-9.144 7.603-9.309.002-.166-3.284-.292-7.303-.28l-7.307.02-5.005 6.544-5.005 6.545-.11-6.565-.11-6.565h-11.592v19.82m83.283-.029v19.849h11.59l.111-5.806.111-5.806 3.848 5.706 3.849 5.706 7.463.109c4.104.06 7.462.004 7.462-.125 0-.128-2.704-3.679-6.01-7.891l-6.011-7.657 1.137-.478c6.92-2.91 8.75-14.259 3.195-19.815-3.061-3.06-4.48-3.367-16.234-3.512l-10.511-.13v19.85m37.315-4.676.122 15.116 1.116 2.116c6.367 12.085 26.635 11.639 32.468-.715.812-1.719.857-2.483.977-16.717l.127-14.915h-11.576l-.178 12.913c-.225 16.246-.486 16.942-6.227 16.619-5.002-.282-5.273-1.175-5.286-17.42l-.009-12.112h-11.656l.122 15.115m-20.579-4.483c2.171 2.524.386 5.785-3.167 5.785h-1.957V150.449l2.078.199c1.641.158 2.283.437 3.046 1.325" fill="#000" fill-rule="evenodd" style="fill:#0f459f;fill-opacity:.94117647"/>
</svg>

<?xml version="1.0" encoding="UTF-8" standalone="no"?>
<svg
   xmlns:dc="http://purl.org/dc/elements/1.1/"
   xmlns:cc="http://creativecommons.org/ns#"
   xmlns:rdf="http://www.w3.org/1999/02/22-rdf-syntax-ns#"
   xmlns:svg="http://www.w3.org/2000/svg"
   xmlns="http://www.w3.org/2000/svg"
   xmlns:sodipodi="http://sodipodi.sourceforge.net/DTD/sodipodi-0.dtd"
   xmlns:inkscape="http://www.inkscape.org/namespaces/inkscape"
   id="svg"
   width="400"
   height="182.18218218218217"
   viewBox="0, 0, 400,182.18218218218217"
   version="1.1"
   sodipodi:docname="image2vector.svg"
   inkscape:version="0.92.4 (5da689c313, 2019-01-14)">
  <metadata
     id="metadata9">
    <rdf:RDF>
      <cc:Work
         rdf:about="">
        <dc:format>image/svg+xml</dc:format>
        <dc:type
           rdf:resource="http://purl.org/dc/dcmitype/StillImage" />
      </cc:Work>
    </rdf:RDF>
  </metadata>
  <defs
     id="defs7" />
  <sodipodi:namedview
     pagecolor="#ffffff"
     bordercolor="#666666"
     borderopacity="1"
     objecttolerance="10"
     gridtolerance="10"
     guidetolerance="10"
     inkscape:pageopacity="0"
     inkscape:pageshadow="2"
     inkscape:window-width="640"
     inkscape:window-height="480"
     id="namedview5"
     showgrid="false"
     inkscape:zoom="0.935"
     inkscape:cx="9.0909091"
     inkscape:cy="91.091087"
     inkscape:current-layer="svg" />
  <g
     id="svgg"
     style="fill:#0f459f;fill-opacity:0.94117647">
    <path
       id="path0"
       d="M333.056 0.598 C 325.782 2.431,319.226 7.551,316.199 13.762 C 315.648 14.892,308.197 36.431,299.641 61.627 L 284.084 107.438 283.982 75.140 L 283.879 42.843 260.058 42.843 L 236.236 42.843 236.236 51.251 L 236.236 59.660 251.451 59.660 L 266.667 59.660 266.667 82.082 L 266.667 104.505 247.267 104.505 C 223.837 104.505,222.646 104.323,218.004 100.044 C 212.466 94.940,212.572 95.727,212.703 60.615 L 212.813 31.013 214.145 28.308 C 215.840 24.865,218.659 22.046,222.101 20.351 L 224.807 19.019 254.345 18.907 L 283.884 18.794 283.884 10.179 L 283.884 1.564 253.754 1.695 C 223.962 1.826,223.588 1.837,220.420 2.724 C 208.533 6.055,199.902 14.625,196.347 26.627 C 195.474 29.575,194.983 88.465,195.791 93.293 C 197.699 104.688,205.193 114.226,215.814 118.778 C 221.828 121.356,221.209 121.321,261.209 121.321 L 297.427 121.321 299.019 116.617 C 317.116 63.122,331.636 20.579,332.110 19.663 C 334.671 14.710,341.431 13.503,345.676 17.240 C 347.943 19.235,346.447 15.195,362.563 62.857 L 376.577 104.304 354.655 104.408 L 332.733 104.511 332.733 112.916 L 332.733 121.321 366.366 121.321 C 387.309 121.321,400.000 121.178,400.000 120.941 C 400.000 119.941,364.597 15.483,363.493 13.226 C 358.774 3.578,344.585 -2.309,333.056 0.598 M35.636 1.854 C 24.411 3.461,17.494 6.835,10.554 14.087 C -5.516 30.880,-3.046 58.885,15.726 72.725 C 23.584 78.519,29.425 80.144,43.243 80.382 C 53.576 80.560,54.454 80.695,54.454 82.108 C 54.454 84.094,54.596 84.084,26.337 84.084 L 0.000 84.084 0.000 92.492 L 0.000 100.901 27.544 100.901 C 50.984 100.901,55.438 100.810,57.441 100.288 C 75.491 95.586,76.543 70.717,58.958 64.394 C 56.943 63.670,55.285 63.529,45.646 63.265 C 34.232 62.952,33.057 62.786,29.429 60.968 C 12.895 52.685,12.981 29.369,29.577 21.037 C 33.862 18.886,34.702 18.833,64.565 18.826 L 92.092 18.819 92.092 10.210 L 92.092 1.602 64.364 1.656 C 49.114 1.686,36.186 1.775,35.636 1.854 M128.328 2.046 C 116.605 3.736,106.814 11.267,102.240 22.114 C 99.642 28.275,99.657 28.013,99.787 63.063 L 99.903 94.695 100.849 97.497 C 103.965 106.738,109.788 113.670,117.790 117.663 C 125.116 121.319,122.543 121.091,158.058 121.226 L 189.389 121.345 189.389 112.925 L 189.389 104.505 160.260 104.500 C 136.865 104.496,130.725 104.387,129.069 103.946 C 124.157 102.638,120.239 99.326,117.992 94.584 L 116.717 91.892 116.604 62.508 C 116.472 27.921,116.336 29.088,121.083 24.104 C 126.242 18.687,125.265 18.819,160.233 18.819 L 189.790 18.819 189.790 10.210 L 189.790 1.602 160.260 1.650 C 144.019 1.677,129.650 1.855,128.328 2.046 M337.705 18.806 C 335.921 19.528,334.803 21.626,332.424 28.711 C 328.887 39.247,301.533 119.971,301.252 120.706 C 301.035 121.270,302.062 121.324,311.113 121.228 L 321.217 121.121 326.875 104.416 L 332.533 87.711 332.642 94.306 L 332.752 100.901 352.162 100.901 C 364.869 100.901,371.572 100.762,371.572 100.499 C 371.572 99.657,345.110 21.540,344.519 20.638 C 343.323 18.812,339.939 17.903,337.705 18.806 M33.553 23.196 C 18.387 28.045,15.754 48.393,29.189 56.918 C 32.722 59.160,34.863 59.533,46.037 59.856 C 59.916 60.258,63.196 61.227,68.453 66.481 C 81.048 79.071,74.641 100.259,57.146 103.873 C 54.537 104.412,50.116 104.505,27.044 104.505 L 0.000 104.505 0.000 113.141 L 0.000 121.778 28.929 121.607 C 59.762 121.426,59.909 121.417,65.750 119.373 C 96.356 108.661,101.583 67.342,74.603 49.390 C 66.908 44.270,62.607 43.180,48.897 42.877 C 37.180 42.617,36.276 42.391,37.866 40.122 L 38.484 39.239 65.288 39.239 L 92.092 39.239 92.092 30.831 L 92.092 22.422 63.964 22.444 C 37.882 22.464,35.670 22.519,33.553 23.196 M129.329 22.797 C 125.848 23.860,122.740 26.598,121.176 29.981 C 120.363 31.740,120.314 32.519,120.197 45.746 L 120.073 59.660 148.925 59.660 L 177.778 59.660 177.778 51.255 L 177.778 42.850 157.378 42.746 L 136.978 42.643 137.582 41.395 C 138.641 39.208,138.242 39.239,164.984 39.239 L 189.790 39.239 189.790 30.831 L 189.790 22.422 160.060 22.457 C 143.709 22.476,129.880 22.629,129.329 22.797 M224.530 23.029 C 220.928 24.352,218.078 27.255,216.785 30.920 C 215.830 33.628,215.948 89.951,216.915 92.659 C 217.816 95.183,220.572 98.246,223.180 99.622 L 225.225 100.701 244.144 100.816 L 263.063 100.931 263.063 82.097 L 263.063 63.263 249.642 63.263 L 236.220 63.263 236.328 71.772 L 236.436 80.280 241.341 80.393 L 246.246 80.505 246.246 82.317 L 246.246 84.128 240.741 83.870 C 235.316 83.615,235.219 83.594,234.134 82.440 L 233.033 81.269 233.033 61.424 L 233.033 41.580 234.203 40.410 L 235.374 39.239 259.629 39.239 L 283.884 39.239 283.884 30.831 L 283.884 22.422 254.955 22.451 C 231.479 22.474,225.744 22.582,224.530 23.029 M120.197 77.377 L 120.320 91.491 121.688 94.015 C 123.208 96.817,124.455 98.023,127.485 99.622 L 129.530 100.701 159.459 100.813 L 189.389 100.925 189.389 92.516 L 189.389 84.107 164.396 83.996 L 139.403 83.884 138.408 82.949 C 135.664 80.370,134.811 80.480,157.395 80.480 L 177.778 80.480 177.778 71.872 L 177.778 63.263 148.926 63.263 L 120.073 63.263 120.197 77.377 M342.877 74.274 L 345.484 82.082 339.923 82.082 L 334.363 82.082 337.051 74.275 C 338.530 69.981,339.859 66.467,340.005 66.467 C 340.152 66.467,341.444 69.980,342.877 74.274 M92.893 161.161 L 92.893 180.981 98.699 180.981 L 104.505 180.981 104.505 173.173 L 104.505 165.365 110.711 165.365 L 116.917 165.365 116.917 173.173 L 116.917 180.981 122.723 180.981 L 128.529 180.981 128.529 161.161 L 128.529 141.341 122.723 141.341 L 116.917 141.341 116.917 148.348 L 116.917 155.355 110.711 155.355 L 104.505 155.355 104.505 148.348 L 104.505 141.341 98.699 141.341 L 92.893 141.341 92.893 161.161 M136.136 161.161 L 136.136 180.981 141.942 180.981 L 147.748 180.981 147.748 161.161 L 147.748 141.341 141.942 141.341 L 136.136 141.341 136.136 161.161 M155.756 161.161 L 155.756 180.981 161.552 180.981 L 167.349 180.981 167.458 173.928 L 167.568 166.875 173.087 173.928 L 178.606 180.981 192.143 180.981 L 205.681 180.981 209.830 169.369 C 212.113 162.983,214.078 157.758,214.198 157.758 C 214.317 157.758,216.288 162.983,218.577 169.369 L 222.740 180.981 229.130 180.981 C 235.053 180.981,235.501 180.930,235.249 180.280 C 235.100 179.895,231.715 170.972,227.727 160.451 L 220.475 141.322 214.262 141.432 L 208.048 141.542 200.789 160.459 C 196.796 170.864,193.438 179.468,193.327 179.580 C 193.144 179.762,177.310 160.914,177.082 160.242 C 177.029 160.087,180.405 155.906,184.585 150.951 C 188.764 145.996,192.186 141.807,192.188 141.642 C 192.190 141.476,188.904 141.350,184.885 141.362 L 177.578 141.382 172.573 147.926 L 167.568 154.471 167.458 147.906 L 167.348 141.341 161.552 141.341 L 155.756 141.341 155.756 161.161 M239.039 161.132 L 239.039 180.981 244.834 180.981 L 250.629 180.981 250.740 175.175 L 250.851 169.369 254.699 175.075 L 258.548 180.781 266.011 180.890 C 270.115 180.950,273.473 180.894,273.473 180.765 C 273.473 180.637,270.769 177.086,267.463 172.874 L 261.452 165.217 262.589 164.739 C 269.509 161.829,271.339 150.480,265.784 144.924 C 262.723 141.864,261.304 141.557,249.550 141.412 L 239.039 141.282 239.039 161.132 M276.354 156.456 L 276.476 171.572 277.592 173.688 C 283.959 185.773,304.227 185.327,310.060 172.973 C 310.872 171.254,310.917 170.490,311.037 156.256 L 311.164 141.341 305.376 141.341 L 299.588 141.341 299.410 154.254 C 299.185 170.500,298.924 171.196,293.183 170.873 C 288.181 170.591,287.910 169.698,287.897 153.453 L 287.888 141.341 282.060 141.341 L 276.232 141.341 276.354 156.456 M255.775 151.973 C 257.946 154.497,256.161 157.758,252.608 157.758 L 250.651 157.758 250.651 154.103 L 250.651 150.449 252.729 150.648 C 254.370 150.806,255.012 151.085,255.775 151.973 "
       stroke="none"
       fill="#000000"
       fill-rule="evenodd"
       style="fill:#0f459f;fill-opacity:0.94117647" />
  </g>
</svg>
